src/lib/packages/icons/src/assets/line/chat-heart.svg

<svg width="24" height="24" viewBox="0 0 24 24" fill="none" xmlns="http://www.w3.org/2000/svg">
<path d="M4.0049 21.749C3.5479 21.749 3.10408 21.569 2.76809 21.233C2.29408 20.76 2.13108 20.073 2.34108 19.441L3.1819 16.94C3.2799 16.633 3.27102 16.325 3.15602 16.082C2.56402 14.809 2.25392 13.399 2.25392 11.999C2.25392 6.62402 6.62697 2.25 12.002 2.25C17.378 2.25 21.751 6.62302 21.751 11.999C21.751 17.375 17.378 21.748 12.002 21.748C10.603 21.748 9.19302 21.437 7.92702 20.848C7.67902 20.729 7.36902 20.721 7.05202 20.822L4.56301 21.658C4.37801 21.719 4.1899 21.749 4.0049 21.749ZM12.001 3.75C7.453 3.75 3.75295 7.45002 3.75295 11.999C3.75295 13.182 4.01596 14.373 4.51296 15.443C4.78896 16.024 4.82493 16.723 4.60793 17.406L3.76393 19.917C3.72193 20.042 3.7859 20.131 3.8279 20.173C3.8699 20.215 3.95998 20.279 4.08498 20.237L6.58303 19.398C7.27703 19.177 7.97696 19.211 8.56496 19.492C9.62696 19.986 10.818 20.249 12.001 20.249C16.55 20.249 20.25 16.549 20.25 12C20.25 7.451 16.55 3.75 12.001 3.75ZM12 16.75C11.895 16.75 11.7889 16.728 11.6909 16.684C11.5379 16.615 7.92691 14.952 7.33791 11.938C7.09991 10.719 7.33608 9.56301 7.98708 8.76801C8.52908 8.10701 9.30309 7.755 10.2261 7.75C10.2311 7.75 10.236 7.75 10.24 7.75C11.01 7.75 11.589 8.067 11.999 8.466C12.412 8.064 12.963 7.746 13.77 7.75C14.694 7.754 15.468 8.10603 16.01 8.76703C16.66 9.56103 16.898 10.716 16.659 11.937C16.07 14.952 12.4599 16.614 12.3059 16.683C12.2109 16.728 12.105 16.75 12 16.75ZM10.24 9.25C10.238 9.25 10.2371 9.25 10.2351 9.25C9.76613 9.252 9.40097 9.41002 9.14797 9.71802C8.78697 10.159 8.66105 10.881 8.81105 11.649C9.16605 13.468 11.211 14.732 11.999 15.159C12.787 14.733 14.832 13.468 15.187 11.65C15.337 10.881 15.2111 10.158 14.8501 9.71802C14.5971 9.41002 14.232 9.253 13.762 9.25C13.761 9.25 13.7591 9.25 13.7571 9.25C13.0211 9.25 12.7361 9.98003 12.7071 10.064C12.6 10.362 12.315 10.564 11.999 10.564C11.997 10.564 11.994 10.564 11.991 10.564C11.672 10.561 11.3881 10.359 11.2871 10.056C11.2621 9.98003 10.978 9.25 10.24 9.25ZM15.9251 11.793H15.9351H15.9251Z" fill="currentColor"/>
</svg>

<svg xmlns="http://www.w3.org/2000/svg" width="24" height="24" fill="none"><path fill="currentColor" d="M4.005 21.749c-.457 0-.9-.18-1.237-.516a1.743 1.743 0 0 1-.427-1.792l.84-2.501c.099-.307.09-.615-.025-.858a9.74 9.74 0 0 1-.902-4.083c0-5.375 4.373-9.749 9.748-9.749 5.376 0 9.749 4.373 9.749 9.749s-4.373 9.749-9.749 9.749a9.727 9.727 0 0 1-4.075-.9c-.248-.119-.558-.127-.875-.026l-2.489.836a1.781 1.781 0 0 1-.558.091ZM12 3.75c-4.548 0-8.248 3.7-8.248 8.249a8.23 8.23 0 0 0 .76 3.444c.276.581.312 1.28.095 1.963l-.844 2.511a.242.242 0 0 0 .064.256.244.244 0 0 0 .257.064l2.498-.839c.694-.221 1.394-.187 1.982.094a8.21 8.21 0 0 0 3.436.757c4.549 0 8.249-3.7 8.249-8.249S16.549 3.75 12 3.75Zm-.001 13a.757.757 0 0 1-.31-.066c-.152-.069-3.763-1.732-4.352-4.746-.238-1.219-.002-2.375.65-3.17.541-.661 1.315-1.013 2.238-1.018h.014c.77 0 1.349.317 1.759.716.413-.402.964-.72 1.771-.716.924.004 1.698.356 2.24 1.017.65.794.888 1.949.649 3.17-.589 3.015-4.2 4.677-4.353 4.746a.718.718 0 0 1-.306.067Zm-1.76-7.5h-.005c-.469.002-.834.16-1.087.468-.361.441-.487 1.163-.337 1.931.355 1.819 2.4 3.083 3.188 3.51.788-.426 2.833-1.691 3.188-3.509.15-.769.024-1.492-.337-1.932-.253-.308-.618-.465-1.088-.468h-.005c-.736 0-1.02.73-1.05.814a.756.756 0 0 1-.708.5h-.008a.747.747 0 0 1-.704-.508c-.025-.076-.309-.806-1.047-.806Zm5.685 2.543h.01-.01Z"/></svg>
